X:225
T: Falsche Liebe (8a), Melodie I, S. 47f
N: T0113
O: Luxemburg
S: Singendes Volk, Esch-Alzette 1937 posth.]
N: 1. Melodie
N: RAMMELDINGEN; gesungen von hhh Nikolaus Felten (!?)
N: am 17.2.1934
R: "erzhlende Lieder"]
M: 6/8
L: 1/8
K: G
D | GGGAAA | B2AG2
d | dBddcc | B4z
d | Bddede | c2BA2z
c3cde | d2cB2
d | deddcc | B4z
d | deddcc | B4z

